X: 420
T: Bir Vefâsız Yâre Düştüm
C: Selânikli Ahmed Bey
O: Turkey
F: http://compmusic.upf.edu/node/140
N: acemkurdi--sarki--devrihindi--bir_vefasiz--selanikli_ahmed_bey
N: makam= acemkurdi
N: form= sarki
N: usul= devrihindi = 7/4
M: 7/4
L: 1/16
K: C _B   
Q: 1/4=90
%%MIDI tuningsystem comma53
c4 f4 f4 f3e f2g2 a4 z4  | (3c'2b2a2 (3a2g2f2 (3f2e2d2 d2c2 c2d2 e8  | 
w:  ARANAĞME  |   | 
A4 f4 f2e2 e2d2 d2c2 c2B2 B2A2  | \
w:   | 
A4 B3A G4 c4 B2A2 A8  | c4 f4 f4 f3e f2g2 a4 z4  | 
w:   |  ARANAĞME  | 
(3c'2b2a2 (3a2g2f2 (3f2e2d2 d2c2 c2d2 e8  | \
w:   | 
A4 f4 f2e2 e2d2 d2c2 c2B2 B2A2  | 
w:   | 
A4 B3A G4 c4 B2A2 A8  | c4 f4 f4 f3e d2e2 f8  | \
w:   |  Bir *  ve fâ *  *  *  sız   | 
f2g2 a3g g3f f2e2 e2d2 d2ed c4  | 
w:  yâ *  *  *  re  *  düş *  *  *  tüm   | 
a2b2 a2g2 g2f2 f2e4d2 d2ed c4  | f2g2 a3g g2f2 f6ed cBBA A4  | 
w:  hiç  *  *  *  be *  ni  *  yâd_  |  et *  *  *  mi *  yor   SAZ  | 
c4 f4 f4 f3e d2e2 f8  | f2g2 a3g g3f f2e2 e2d2 d2ed c4  | 
w:  Bir *  ve fâ *  *  *  sız   |  yâ *  *  *  re  *  düş *  *  *  tüm   | 
a2b2 a2g2 g2f2 f2e4d2 d2ed c4  | f2g2 a3g g2f2 f6g2 f2g2 a4  | 
w:  hiç  *  *  *  be *  ni  *  yâd_  |  et *  *  *  mi *  yor   SAZ  | 
g4 a4 a4 a2c'2 b2a2 a8  | a2g2 g2f2 f2e2 e2d2 d2c2 c2dc B2A2  | 
w:  Bâ *  de ler  *  *  *  gül  |  ler  *  *  *  çe *  men *  *  *  ler   | 
(3A2B2c2 d4 d4 c2_e2 d2c2 B3A G4  | \
w:  gön *  *  *  lü mü  *  *  *  şâd_  | 
A2B2 c3B B2A2 A6g2 f2g2 a4  | 
w:  et *  *  *  mi *  yor   SAZ  | 
g4 a4 a4 a2c'2 b2a2 a8  | a2g2 g2f2 f2e2 e2d2 d2c2 c2dc B2A2  | 
w:  Bâ *  de ler  *  *  *  gül  |  ler  *  *  *  çe *  men *  *  *  ler   | 
(3A2B2c2 d4 d4 c2_e2 d2c2 B3A G4  | \
w:  gön *  *  *  lü mü  *  *  *  şâd_  | 
A2B2 c3B B2A2 A6g2 ^f2a2 g4  | 
w:  et *  *  *  mi *  yor   SAZ  | 
^f4 g4 g4 (3b2a2g2 (3f2_7/8e2d2 d8  | \
w:  Her  *  ne  yap *  *  *  *  *  sam   | 
(3_2/4B2c2d2 (3_7/8e2d2c2 c2_1/4B2 B2A2 c2BA A8  | 
w:  nev *  *  *  *  *  ni *  ha *  *  *  *  lim   | 
a2b2 a2g2 g2f2 f2e2 e2d2 d2ed c4  | \
w:  gam *  *  *  dan_ *  â *  *  *  zâd_  | 
f2g2 a3g g2f2 f6g2 f2g2 a4  | 
w:  et *  *  *  mi *  yor   SAZ  | 
g4 a4 a4 a2c'2 b2a2 a8  | a2g2 g2f2 f2e2 e2d2 d2c2 c2dc B2A2  | 
w:  Bâ *  de ler  *  *  *  gül  |  ler  *  *  *  çe *  men *  *  *  ler   | 
(3A2B2c2 d4 d4 c2_e2 d2c2 B3A G4  | \
w:  gön *  *  *  lü mü  *  *  *  şâd_  | 
A2B2 c3B B2A2 A6G2 c2BA A4  | 
w:  et KARAR *  *  mi *  yor   SAZ  | 
|


